google-analytics-dashboard-for-wp/lite/assets/vue/img/yir-icon-point.svg

<svg width="65" height="65" viewBox="0 0 65 65" fill="none" xmlns="http://www.w3.org/2000/svg">
    <circle cx="32" cy="32" r="30" fill="#6528F5"/>
    <path d="M64.5346 32.2673C64.5346 14.4503 50.0919 0 32.2673 0C14.4427 0 0 14.4427 0 32.2673C0 50.092 14.4427 64.5346 32.2673 64.5346C50.0919 64.5346 64.5346 50.0843 64.5346 32.2673ZM4.87315 32.2673C4.87315 17.1021 17.1559 4.87315 32.2673 4.87315C47.4325 4.87315 59.6615 17.1559 59.6615 32.2673C59.6615 47.4325 47.3787 59.6615 32.2673 59.6615C17.1021 59.6615 4.87315 47.371 4.87315 32.2673Z" fill="white"/>
    <path d="M32.2674 45.0497C39.3269 45.0497 45.0498 39.3268 45.0498 32.2673C45.0498 25.2077 39.3269 19.4849 32.2674 19.4849C25.2079 19.4849 19.485 25.2077 19.485 32.2673C19.485 39.3268 25.2079 45.0497 32.2674 45.0497Z" fill="white"/>
</svg>

<svg width="65" height="65" fill="none" xmlns="http://www.w3.org/2000/svg"><circle cx="32" cy="32" r="30" fill="#6528F5"/><path d="M64.535 32.267C64.535 14.45 50.092 0 32.267 0 14.443 0 0 14.443 0 32.267c0 17.825 14.443 32.268 32.267 32.268 17.825 0 32.268-14.45 32.268-32.268zm-59.662 0c0-15.165 12.283-27.394 27.394-27.394 15.165 0 27.394 12.283 27.394 27.394 0 15.165-12.282 27.394-27.394 27.394-15.165 0-27.394-12.29-27.394-27.394z" fill="#fff"/><path d="M32.267 45.05c7.06 0 12.783-5.723 12.783-12.783s-5.723-12.782-12.783-12.782-12.782 5.723-12.782 12.782c0 7.06 5.723 12.783 12.782 12.783z" fill="#fff"/></svg>
